X: 23481
T: Lewis Lilt
R: polka
M: 2/4
K: Gmajor
DG BB|cA B2|BA A>B|AG G/A/G/E/|
DG BB|cA B2|BA A>B|AG G||
B/c/|dD D/D/D/D/|ED D2|BA A>B|AG GG/B/|
dD D/D/D/D/|ED D2|BA A>B|AG G||

